recipes/office365-owa/icon.svg

<svg viewBox="0 0 32 32" xmlns="http://www.w3.org/2000/svg"><path d="m28.59554 2h-17.19154a1.404 1.404 0 0 0 -1.404 1.40407v1.59593l9.69 3 10.30961-3v-1.596a1.40405 1.40405 0 0 0 -1.40407-1.404z" fill="#0364b8"/><path d="m31.6499 17.40548a11.34148 11.34148 0 0 0 .3501-1.40505.66592.66592 0 0 0 -.33331-.57679v-.00048l-.01282-.00727-.004-.00225-10.83774-6.17414a1.49877 1.49877 0 0 0 -.14532-.08276v-.00006a1.5003 1.5003 0 0 0 -1.33331 0l-.00006.00006a1.49088 1.49088 0 0 0 -.14527.08276l-10.83777 6.17414-.004.00225-.01275.00727v.00048a.666.666 0 0 0 -.33331.57679 11.34354 11.34354 0 0 0 .35009 1.405l11.49171 8.405z" fill="#0a2767"/><path d="m24 5h-7l-2.021 3 2.021 3 7 6h6v-6z" fill="#28a8ea"/><path d="m10 5h6.99985v5.99999h-6.99985z" fill="#0078d4"/><path d="m23.99969 5h5.99992v5.99997h-5.99992z" fill="#50d9ff"/><path d="m24 17-7-6h-7v6l7 6 10.832 1.768z" fill="#0364b8"/><path d="m10.03118 5.00001 19.96843-.00001" fill="none"/><path d="m16.99971 11h7.00001v5.99999h-7.00001z" fill="#0078d4"/><path d="m10 17h6.99978v6h-6.99978z" fill="#064a8c"/><path d="m23.99973 17h5.99992v6h-5.99992z" fill="#0078d4"/><path d="m20.19093 25.21763-11.79357-8.60045.49414-.86918s10.745 6.12012 10.90905 6.21191a.5285.5285 0 0 0 .4209-.0122c.15332-.08643 10.93249-6.23 10.93249-6.23l.49609.86914z" fill="#0a2767" opacity=".5"/><path d="m31.66669 16.57678v.00049l-.01325.00757-.00335.00189-10.838 6.1742a1.49672 1.49672 0 0 1 -1.46045.09118l3.77468 5.06089 8.25405 1.797-.0003.00446a1.49756 1.49756 0 0 0 .61993-1.21446v-12.49994a.666.666 0 0 1 -.33331.57672z" fill="#1490df"/><path d="m32 28.5v-.738l-9.98291-5.68756-1.205.68647a1.49685 1.49685 0 0 1 -1.46045.09118l3.7747 5.06091 8.254 1.79694-.0003.00446a1.49756 1.49756 0 0 0 .61996-1.2144z" opacity=".05"/><path d="m31.95 28.88342-10.94292-6.23358-.19495.11109a1.49685 1.49685 0 0 1 -1.46045.09118l3.77466 5.06089 8.254 1.79694-.0003.00446a1.50132 1.50132 0 0 0 .56996-.83098z" opacity=".1"/><path d="m8.35 16.59v-.01h-.01l-.03-.02a.65068.65068 0 0 1 -.31-.56v12.5a1.498 1.498 0 0 0 1.5 1.5h21a1.50264 1.50264 0 0 0 .37-.05.63693.63693 0 0 0 .18-.06.14177.14177 0 0 0 .06-.02 1.04752 1.04752 0 0 0 .23-.13c.02-.01.03-.01.04-.03z" fill="#28a8ea"/><path d="m18 24.66663v-16.33332a1.33727 1.33727 0 0 0 -1.33337-1.33331h-6.6355v4h.00006v3.456l-1.68085.95759-.004.00225-.01281.00727v.00048a.66591.66591 0 0 0 -.33332.57679l.00019.00421-.0004-.00359v9.999h8.66663a1.33732 1.33732 0 0 0 1.33337-1.33337z" opacity=".1"/><path d="m17 25.66663v-16.33332a1.33727 1.33727 0 0 0 -1.33337-1.33331h-5.6355v3h.00006v3.456l-1.68085.95759-.004.00225-.01281.00727v.00048a.66591.66591 0 0 0 -.33332.57679l.00019.00421-.0004-.00359v10.999h7.66663a1.33732 1.33732 0 0 0 1.33337-1.33337z" opacity=".2"/><path d="m17 23.66663v-14.33332a1.33727 1.33727 0 0 0 -1.33337-1.33331h-5.6355v3h.00006v3.456l-1.68085.95759-.004.00225-.01281.00727v.00048a.66591.66591 0 0 0 -.33332.57679l.00019.00421-.0004-.00359v8.999h7.66663a1.33732 1.33732 0 0 0 1.33337-1.33337z" opacity=".2"/><path d="m16 23.66663v-14.33332a1.33727 1.33727 0 0 0 -1.33337-1.33331h-4.6355v3h.00006v3.456l-1.68085.95759-.004.00225-.01281.00727v.00048a.66591.66591 0 0 0 -.33332.57679l.00019.00421-.0004-.00359v8.999h6.66663a1.33732 1.33732 0 0 0 1.33337-1.33337z" opacity=".2"/><path d="m1.33348 8h13.3332a1.33332 1.33332 0 0 1 1.33332 1.33332v13.33334a1.33333 1.33333 0 0 1 -1.33333 1.33334h-13.3332a1.33332 1.33332 0 0 1 -1.33332-1.33333v-13.33334a1.33333 1.33333 0 0 1 1.33333-1.33333z" fill="#0078d4"/><path d="m3.86661 13.468a4.18142 4.18142 0 0 1 1.64192-1.8139 4.9652 4.9652 0 0 1 2.60955-.6541 4.61691 4.61691 0 0 1 2.414.62036 4.13906 4.13906 0 0 1 1.59809 1.733 5.59694 5.59694 0 0 1 .55967 2.54889 5.90136 5.90136 0 0 1 -.57653 2.66689 4.239 4.239 0 0 1 -1.64531 1.79363 4.79917 4.79917 0 0 1 -2.505.63723 4.72864 4.72864 0 0 1 -2.46794-.62711 4.20422 4.20422 0 0 1 -1.61833-1.73635 5.4589 5.4589 0 0 1 -.56642-2.51854 6.05522 6.05522 0 0 1 .5563-2.65zm1.74981 4.25826a2.71627 2.71627 0 0 0 .92379 1.19352 2.41142 2.41142 0 0 0 1.443.43493 2.533 2.533 0 0 0 1.54079-.44844 2.60284 2.60284 0 0 0 .89682-1.1969 4.62569 4.62569 0 0 0 .28658-1.66554 5.06271 5.06271 0 0 0 -.26972-1.68578 2.6687 2.6687 0 0 0 -.86648-1.24073 2.3873 2.3873 0 0 0 -1.52729-.472 2.493 2.493 0 0 0 -1.47672.4383 2.741 2.741 0 0 0 -.944 1.20364 4.77582 4.77582 0 0 0 -.00674 3.439z" fill="#fff"/><path d="m.00002 0h32v32h-32z" fill="none"/></svg>

<svg viewBox="0 0 32 32" xmlns="http://www.w3.org/2000/svg"><path d="M28.596 2H11.404A1.404 1.404 0 0 0 10 3.404V5l9.69 3L30 5V3.404A1.404 1.404 0 0 0 28.596 2z" fill="#0364b8"/><path d="M31.65 17.405A11.341 11.341 0 0 0 32 16a.666.666 0 0 0-.333-.576l-.013-.008-.004-.002L20.812 9.24a1.499 1.499 0 0 0-.145-.083 1.5 1.5 0 0 0-1.334 0 1.49 1.49 0 0 0-.145.082L8.35 15.415l-.004.002-.012.007A.666.666 0 0 0 8 16a11.344 11.344 0 0 0 .35 1.405l11.492 8.405z" fill="#0a2767"/><path d="M24 5h-7l-2.021 3L17 11l7 6h6v-6z" fill="#28a8ea"/><path d="M10 5h7v6h-7z" fill="#0078d4"/><path d="M24 5h6v6h-6z" fill="#50d9ff"/><path d="m24 17-7-6h-7v6l7 6 10.832 1.768z" fill="#0364b8"/><path d="M10.031 5H30" fill="none"/><path d="M17 11h7v6h-7z" fill="#0078d4"/><path d="M10 17h7v6h-7z" fill="#064a8c"/><path d="M24 17h6v6h-6z" fill="#0078d4"/><path d="m20.19 25.218-11.793-8.6.495-.87s10.745 6.12 10.909 6.212a.528.528 0 0 0 .42-.012l10.933-6.23.496.869z" fill="#0a2767" opacity=".5"/><path d="m31.667 16.577-.014.008-.003.002-10.838 6.174a1.497 1.497 0 0 1-1.46.091l3.774 5.061 8.254 1.797v.004A1.498 1.498 0 0 0 32 28.5V16a.666.666 0 0 1-.333.577z" fill="#1490df"/><path d="M32 28.5v-.738l-9.983-5.688-1.205.687a1.497 1.497 0 0 1-1.46.091l3.774 5.061 8.254 1.797v.004A1.498 1.498 0 0 0 32 28.5z" opacity=".05"/><path d="M31.95 28.883 21.007 22.65l-.195.11a1.497 1.497 0 0 1-1.46.092l3.774 5.061 8.254 1.797v.004a1.501 1.501 0 0 0 .57-.83z" opacity=".1"/><path d="M8.35 16.59v-.01h-.01l-.03-.02A.65.65 0 0 1 8 16v12.5A1.498 1.498 0 0 0 9.5 30h21a1.503 1.503 0 0 0 .37-.05.637.637 0 0 0 .18-.06.142.142 0 0 0 .06-.02 1.048 1.048 0 0 0 .23-.13c.02-.01.03-.01.04-.03z" fill="#28a8ea"/><path d="M18 24.667V8.333A1.337 1.337 0 0 0 16.667 7H10.03V14.456l-1.68.958-.005.002-.012.007A.666.666 0 0 0 8 16v.005V16 26h8.667A1.337 1.337 0 0 0 18 24.667z" opacity=".1"/><path d="M17 25.667V9.333A1.337 1.337 0 0 0 15.667 8H10.03V14.456l-1.68.958-.005.002-.012.007A.666.666 0 0 0 8 16v.005V16 27h7.667A1.337 1.337 0 0 0 17 25.667z" opacity=".2"/><path d="M17 23.667V9.333A1.337 1.337 0 0 0 15.667 8H10.03V14.456l-1.68.958-.005.002-.012.007A.666.666 0 0 0 8 16v.005V16 25h7.667A1.337 1.337 0 0 0 17 23.667z" opacity=".2"/><path d="M16 23.667V9.333A1.337 1.337 0 0 0 14.667 8H10.03V14.456l-1.68.958-.005.002-.012.007A.666.666 0 0 0 8 16v.005V16 25h6.667A1.337 1.337 0 0 0 16 23.667z" opacity=".2"/><path d="M1.333 8h13.334A1.333 1.333 0 0 1 16 9.333v13.334A1.333 1.333 0 0 1 14.667 24H1.333A1.333 1.333 0 0 1 0 22.667V9.333A1.333 1.333 0 0 1 1.333 8z" fill="#0078d4"/><path d="M3.867 13.468a4.181 4.181 0 0 1 1.642-1.814A4.965 4.965 0 0 1 8.119 11a4.617 4.617 0 0 1 2.413.62 4.14 4.14 0 0 1 1.598 1.733 5.597 5.597 0 0 1 .56 2.55 5.901 5.901 0 0 1-.577 2.666 4.239 4.239 0 0 1-1.645 1.794A4.8 4.8 0 0 1 7.963 21a4.729 4.729 0 0 1-2.468-.627 4.204 4.204 0 0 1-1.618-1.736 5.459 5.459 0 0 1-.567-2.519 6.055 6.055 0 0 1 .557-2.65zm1.75 4.258a2.716 2.716 0 0 0 .923 1.194 2.411 2.411 0 0 0 1.443.435 2.533 2.533 0 0 0 1.541-.449 2.603 2.603 0 0 0 .897-1.197 4.626 4.626 0 0 0 .286-1.665 5.063 5.063 0 0 0-.27-1.686 2.669 2.669 0 0 0-.866-1.24 2.387 2.387 0 0 0-1.527-.473 2.493 2.493 0 0 0-1.477.439 2.741 2.741 0 0 0-.944 1.203 4.776 4.776 0 0 0-.007 3.44z" fill="#fff"/><path d="M0 0h32v32H0z" fill="none"/></svg>
